X:1
T:Nail that Catfish to a Tree
Q:1/4=240
M:4/4
L:1/4
K:G
|: D | \
B B/B/ A B | c/B/ A B2 | A/B/A/G/ F D | A/B/A/G/ F D |
B B A B | c/B/ A B2 | A/B/A/G/ F/D/E/F/ | G2 G :|
|: D | \
C2 E2 | c2> B2 | A/B/A/G/ F D | A/B/A/G/ F D |
C2 E2 | c2> B2 | A/B/A/G/ F/D/E/F/ | G2 G D |
C2 E2 | c2> B2 | A/B/A/G/ F D | A/B/A/G/ F D |
C2 E2 | c2> Bc/ | d c B A | G2 G ||
